epam-assets/icon-sources/18/microsoft-teams.svg

<svg width="18" height="18" viewBox="0 0 18 18" fill="none" xmlns="http://www.w3.org/2000/svg">
<g id="18/microsoft-teams">
<g id="icon">
<path d="M14.0313 6.23611C14.877 6.23611 15.5625 5.54941 15.5625 4.70234C15.5625 3.85526 14.877 3.16856 14.0313 3.16856C13.1856 3.16856 12.4999 3.85526 12.4999 4.70234C12.4999 5.54941 13.1856 6.23611 14.0313 6.23611Z" fill="#6C6F80"/>
<path fill-rule="evenodd" clip-rule="evenodd" d="M13.5739 11.4965V7.3316C13.5739 6.97147 13.278 6.67426 12.9185 6.67426H15.3438C15.7038 6.67426 16 6.97097 16 7.33154V10.591C15.9993 11.7939 15.0108 12.7832 13.8099 12.7832C13.6588 12.7832 13.5081 12.7676 13.3601 12.7365C13.3555 12.7355 13.3509 12.7343 13.3462 12.7333C13.4933 12.348 13.5739 11.931 13.5739 11.4965Z" fill="#6C6F80"/>
<path fill-rule="evenodd" clip-rule="evenodd" d="M8.41639 4.92147H2.58316C2.26327 4.92147 2 5.18518 2 5.50559V11.3483C2 11.6687 2.26327 11.9325 2.58316 11.9325H8.41639C8.7363 11.9325 8.99955 11.6687 8.99955 11.3483V5.50559C8.99955 5.18518 8.7363 4.92147 8.41639 4.92147ZM5.93355 7.10161H7.24127V6.23832H3.75915V7.10161H5.07432V10.6161H5.93355V7.10161Z" fill="#6C6F80"/>
<path fill-rule="evenodd" clip-rule="evenodd" d="M7.59211 4.92147H9.05273C9.37263 4.92147 9.63589 5.18516 9.63589 5.50559V6.08079C10.6705 5.9809 11.4794 5.10765 11.4794 4.04516C11.4794 2.91566 10.5652 2 9.43755 2C8.30987 2 7.39571 2.91566 7.39571 4.04516C7.39571 4.35875 7.46617 4.65587 7.59211 4.92147Z" fill="#6C6F80"/>
<path fill-rule="evenodd" clip-rule="evenodd" d="M6.10378 12.5667C6.13004 12.6486 6.1592 12.7293 6.19119 12.8092C6.25267 12.9607 6.32578 13.1073 6.40998 13.2475C7.03393 14.3306 8.19121 15 9.43964 15C11.3585 15 12.9374 13.4185 12.9374 11.4965V7.3316C12.9374 6.97147 12.6417 6.67426 12.282 6.67426H9.63582V11.9825C9.63582 12.303 9.37256 12.5667 9.05266 12.5667H6.10378Z" fill="#6C6F80"/>
</g>
</g>
</svg>

<svg xmlns="http://www.w3.org/2000/svg" width="18" height="18" fill="none" viewBox="0 0 18 18">
  <path fill="#6C6F80" d="M14.031 6.236c.846 0 1.531-.687 1.531-1.534a1.532 1.532 0 1 0-3.062 0c0 .847.686 1.534 1.531 1.534Z"/>
  <path fill="#6C6F80" fill-rule="evenodd" d="M13.574 11.496V7.332a.66.66 0 0 0-.655-.658h2.425a.66.66 0 0 1 .656.658v3.259a2.202 2.202 0 0 1-2.64 2.146l-.014-.004a3.46 3.46 0 0 0 .228-1.237ZM8.416 4.921H2.583A.586.586 0 0 0 2 5.506v5.842c0 .32.263.584.583.584h5.833c.32 0 .584-.263.584-.584V5.506a.586.586 0 0 0-.584-.585Zm-2.482 2.18H7.24v-.863H3.76v.864h1.315v3.514h.86V7.102Z" clip-rule="evenodd"/>
  <path fill="#6C6F80" fill-rule="evenodd" d="M7.592 4.921h1.46c.32 0 .584.264.584.585v.575a2.044 2.044 0 0 0 1.843-2.036A2.042 2.042 0 0 0 9.438 2a2.044 2.044 0 0 0-1.846 2.921Zm-1.488 7.646a3.157 3.157 0 0 0 .306.68A3.5 3.5 0 0 0 9.44 15c1.918 0 3.497-1.582 3.497-3.504V7.332a.66.66 0 0 0-.655-.658H9.636v5.308a.587.587 0 0 1-.583.585h-2.95Z" clip-rule="evenodd"/>
</svg>
